!!!SOCIAL_FUNCTION:	bird dance songs
!!!PDT:	1956
!!!OTL: No_155_Switchgrass_Dance_Song_(e).krn
!!!LANG: Non-Tone
!!!LING_GROUP: Muskogean
!!!REG: Florida
**kern
*staff1
=1-
*clefF4
*k[]
*M3/4
8.G\L
16E\Jk
8.G\L
16E\Jk
8D\
8r
=2!|:
8.G\L
16E\Jk
8.D/L
16BB/Jk
8AA/
8r
=3
12D/L
12AA/
12C/J
8.AA/L
16AA/Jk
8AA/
8r
=4
8.AA/L
16AA/Jk
8.E\L
16E\Jk
4D\
=5
8.E\L
16G\Jk
8.D/L
16BB/Jk
8AA/
8r
=6
12D/L
12AA/
12C/J
8.AA/L
16AA/Jk
8AA/
8r
=7
8.A\L
16E\Jk
8.G\L
16E\Jk
4D\
==:|!
*-
